public/briefcase.svg

<?xml version="1.0" encoding="utf-8"?><!-- Uploaded to: SVG Repo, www.svgrepo.com, Generator: SVG Repo Mixer Tools -->
<svg width="800px" height="800px" viewBox="0 0 24 24" fill="none" xmlns="http://www.w3.org/2000/svg">
<path d="M16 7V6.2C16 5.0799 16 4.51984 15.782 4.09202C15.5903 3.71569 15.2843 3.40973 14.908 3.21799C14.4802 3 13.9201 3 12.8 3H11.2C10.0799 3 9.51984 3 9.09202 3.21799C8.71569 3.40973 8.40973 3.71569 8.21799 4.09202C8 4.51984 8 5.0799 8 6.2V7M3.02721 10.0263C3.38776 10.3719 7.28572 14 12 14C16.7143 14 20.6122 10.3719 20.9728 10.0263M3.02721 10.0263C3 10.493 3 11.0665 3 11.8V16.2C3 17.8802 3 18.7202 3.32698 19.362C3.6146 19.9265 4.07354 20.3854 4.63803 20.673C5.27976 21 6.11984 21 7.8 21H16.2C17.8802 21 18.7202 21 19.362 20.673C19.9265 20.3854 20.3854 19.9265 20.673 19.362C21 18.7202 21 17.8802 21 16.2V11.8C21 11.0665 21 10.493 20.9728 10.0263M3.02721 10.0263C3.06233 9.4241 3.14276 8.99959 3.32698 8.63803C3.6146 8.07354 4.07354 7.6146 4.63803 7.32698C5.27976 7 6.11984 7 7.8 7H16.2C17.8802 7 18.7202 7 19.362 7.32698C19.9265 7.6146 20.3854 8.07354 20.673 8.63803C20.8572 8.99959 20.9377 9.4241 20.9728 10.0263" stroke="#000000" stroke-width="2" stroke-linecap="round" stroke-linejoin="round"/>
</svg>

<svg width="800" height="800" viewBox="0 0 24 24" fill="none" xmlns="http://www.w3.org/2000/svg"><path d="M16 7v-.8c0-1.12 0-1.68-.218-2.108a2 2 0 0 0-.874-.874C14.48 3 13.92 3 12.8 3h-1.6c-1.12 0-1.68 0-2.108.218a2 2 0 0 0-.874.874C8 4.52 8 5.08 8 6.2V7m-4.973 3.026C3.387 10.372 7.286 14 12 14s8.612-3.628 8.973-3.974m-17.946 0C3 10.493 3 11.066 3 11.8v4.4c0 1.68 0 2.52.327 3.162a3 3 0 0 0 1.311 1.311C5.28 21 6.12 21 7.8 21h8.4c1.68 0 2.52 0 3.162-.327a3 3 0 0 0 1.311-1.311C21 18.72 21 17.88 21 16.2v-4.4c0-.734 0-1.307-.027-1.774m-17.946 0c.035-.602.116-1.026.3-1.388a3 3 0 0 1 1.311-1.311C5.28 7 6.12 7 7.8 7h8.4c1.68 0 2.52 0 3.162.327a3 3 0 0 1 1.311 1.311c.184.362.265.786.3 1.388" stroke="#000" stroke-width="2" stroke-linecap="round" stroke-linejoin="round"/></svg>
